icon/cg/arrows-h.svg

<svg viewBox="0 0 24 24" fill="none" xmlns="http://www.w3.org/2000/svg" height="1em" width="1em">
  <path d="M5.65698 9.17157L4.24276 7.75735L0.00012207 12L4.24276 16.2426L5.65698 14.8284L3.82858 13H10.0001V11H3.82851L5.65698 9.17157Z" fill="currentColor"/>
  <path d="M14.0001 11V13H20.1716L18.3432 14.8284L19.7574 16.2426L24.0001 12L19.7574 7.75735L18.3432 9.17157L20.1717 11H14.0001Z" fill="currentColor"/>
</svg>

<svg width="24" height="24" fill="none" xmlns="http://www.w3.org/2000/svg"><path d="M5.657 9.172 4.243 7.757 0 12l4.243 4.243 1.414-1.415L3.829 13H10v-2H3.83l1.828-1.828ZM14 11v2h6.172l-1.829 1.828 1.414 1.415L24 12l-4.243-4.243-1.414 1.415L20.172 11H14Z" fill="currentColor"/></svg>
